X: 1306
T: An Islay Pipe
R: reel
M: 4/4
K: Gmajor
a|eA A/A/A edBd|eAea BGBg|eA A/A/A edBd|efge A2 aA|eA A/A/A edBd|
eAea BGBg|eA A/A/A edBd|efge A2 Aa|e>de>f gage|dBgB dGG<g|e>de>f gage|
dBgB A3 a|e>de>f gage|dBgB dGG<g|e>de>f gage|dBgB A3||

